!!!OTL: SCHOENSTES KIND ZU DEINEN FUESSEN
!!!ARE: Europa, Mitteleuropa, Deutschland, Berlin
!!!SCT: E0504
!!!YEM: Copyright 1995, estate of Helmut Schaffrath.
**kern
*ICvox
*Ivox
!! Mixed meters:  3/4; 2/4
*M3/4
*k[]
*C:
=1
{8g
8e
8cc
8a
8g
8a
=2
4g
4f
4e}
=3
*M2/4
{8g
8cc
8a
8f
=4
4e
4d
=5
4c
4r}
=6
*M3/4
{8g
8e
8cc
8a
8g
8a
=7
4g
4f
4e}
=8
*M2/4
{8g
8cc
8a
8f
=9
4e
4d
=10
4c
4r}
=11
{8d
8e
=12
*M3/4
4f
4d
8e
8f
=13
*M2/4
4g
4e}
=14
{8d
8e
=15
*M3/4
4f
4d
8e
8f
=16
4g
4e
4r}
=17
{8g
8e
8cc
8a
8g
8a
=18
4g
4f
4e}
=19
*M2/4
{8g
8cc
8a
8f
=20
4e
4d
=21
4c
4r}
==
!!!AGN: Liebes - Lied, Liebeslust
!!!ONB: ESAC (Essen Associative Code) Database: ERK1
!!!AMT: irregular
!!!AIN: vox
!!!EED: Helmut Schaffrath
!!!EEV: 1.0
*-
